src/components/00-materials/images-raw/Warenhouse.svg

<svg width="96" height="96" viewBox="0 0 96 96" fill="none" xmlns="http://www.w3.org/2000/svg">
<path d="M13.6339 42.9639V87.0872H82.3659V42.9639" stroke="#00008F" stroke-width="2" stroke-linecap="round" stroke-linejoin="round"/>
<path d="M26.9413 87.0871V57.1367H69.059V87.0871M8.89086 39.7754C8.88325 39.2497 8.99854 38.7297 9.2271 38.2591C9.45566 37.7885 9.79082 37.3809 10.2045 37.0704L45.1422 9.94844C45.964 9.30779 46.9679 8.96094 48.0001 8.96094C49.0324 8.96094 50.0363 9.30779 50.8581 9.94844L85.7958 37.0807C86.2087 37.3895 86.5434 37.7954 86.772 38.2642C87.0006 38.7331 87.1163 39.2512 87.1094 39.7754C87.109 40.4066 86.9369 41.0251 86.6126 41.5616C86.2882 42.098 85.8245 42.531 85.2734 42.812C84.7223 43.093 84.1058 43.2109 83.493 43.1523C82.8802 43.0937 82.2955 42.861 81.8046 42.4804L48.7121 16.7675C48.5076 16.6073 48.2574 16.5206 48.0001 16.5206C47.7428 16.5206 47.4927 16.6073 47.2882 16.7675L14.1957 42.4804C13.7047 42.861 13.1201 43.0937 12.5073 43.1523C11.8945 43.2109 11.278 43.093 10.7269 42.812C10.1758 42.531 9.71206 42.098 9.38772 41.5616C9.06338 41.0251 8.89132 40.4066 8.89086 39.7754V39.7754Z" stroke="#00008F" stroke-width="2" stroke-linecap="round" stroke-linejoin="round"/>
<path d="M32.9581 72.688V65.4884H42.9861V72.688M26.9413 41.8325H36.9693V52.1177H26.9413V41.8325ZM42.9861 41.8325H53.0141V52.1177H42.9861V41.8325ZM59.031 41.8325H69.059V52.1177H59.031V41.8325ZM32.9581 87.0872V79.8876H42.9861V87.0872H32.9581ZM42.9861 87.0872V79.8876H53.0141V87.0872H42.9861ZM53.0141 87.0872V79.8876H63.0422V87.0872H53.0141ZM32.9581 79.8876V72.688H42.9861V79.8876H32.9581Z" stroke="#00008F" stroke-width="2" stroke-linecap="round" stroke-linejoin="round"/>
</svg>

<svg width="96" height="96" viewBox="0 0 96 96" fill="none" xmlns="http://www.w3.org/2000/svg"><path d="M13.634 42.964v44.123h68.732V42.964" stroke="#00008F" stroke-width="2" stroke-linecap="round" stroke-linejoin="round"/><path d="M26.941 87.087v-29.95H69.06v29.95M8.891 39.775a3.361 3.361 0 01.336-1.516c.229-.47.564-.878.977-1.189L45.142 9.948A4.646 4.646 0 0148 8.961c1.032 0 2.036.347 2.858.987l34.938 27.133c.413.308.747.714.976 1.183.229.47.344.987.337 1.511 0 .632-.172 1.25-.496 1.787-.325.536-.788.969-1.34 1.25a3.238 3.238 0 01-3.468-.332L48.712 16.768a1.154 1.154 0 00-1.424 0L14.196 42.48a3.238 3.238 0 01-3.469.332 3.341 3.341 0 01-1.34-1.25 3.46 3.46 0 01-.496-1.787v0z" stroke="#00008F" stroke-width="2" stroke-linecap="round" stroke-linejoin="round"/><path d="M32.958 72.688v-7.2h10.028v7.2M26.941 41.833H36.97v10.285H26.941V41.833zm16.045 0h10.028v10.285H42.986V41.833zm16.045 0h10.028v10.285H59.031V41.833zM32.958 87.087v-7.2h10.028v7.2H32.958zm10.028 0v-7.2h10.028v7.2H42.986zm10.028 0v-7.2h10.028v7.2H53.014zm-20.056-7.2v-7.199h10.028v7.2H32.958z" stroke="#00008F" stroke-width="2" stroke-linecap="round" stroke-linejoin="round"/></svg>
